door-sliding.svg

<svg fill="currentColor" viewBox="0 0 24 24"><path d="M10 13H8v-2h2zm6-2h-2v2h2zm5 8v2H3v-2h1V5c0-1.1.9-2 2-2h12c1.1 0 2 .9 2 2v14zM11 5H6v14h5zm7 0h-5v14h5z"/></svg>

<svg  viewBox="0 0 24 24" fill="currentColor"><path  d="M10 13H8V11H10V13M16 11H14V13H16V11M21 19V21H3V19H4V5C4 3.9 4.9 3 6 3H18C19.1 3 20 3.9 20 5V19H21M11 5H6V19H11V5M18 5H13V19H18V5Z"/></svg>
